unicode.svg

<svg fill="currentColor" viewBox="0 0 24 24"><path d="M22 6a1.46 1.46 0 0 1-1.46 1.44A1.46 1.46 0 0 1 19.09 6a1.46 1.46 0 0 1 1.45-1.5A1.46 1.46 0 0 1 22 6m-.44 2.86h-2.03c-.13-.01-.19.05-.19.14v3.59c0 .49 0 .91.01 1.27l.02.9c.01.24.02.45.02.63.01.17.01.33.01.47h-.02c-.12-.26-.31-.64-.56-1.12-.24-.47-.53-1.02-.85-1.63-.33-.61-.68-1.27-1.05-1.96-.37-.68-.74-1.37-1.11-2.04-.36-.68-.72-1.33-1.06-1.95q-.525-.93-.9-1.62c-.03-.04-.06-.1-.08-.12-.03-.02-.09-.03-.17-.03h-2.98c-.12 0-.15.05-.15.15h.03c-.03.02-.03.03-.03.04v8.26c0 .66-.07 1.16-.22 1.61-.15.43-.35.78-.61 1.05-.26.25-.57.43-.92.55-.36.11-.72.17-1.16.17-1.02 0-1.77-.31-2.26-.91-.5-.61-.74-1.42-.74-2.43V5.56c0-.11-.06-.17-.17-.17H2.17c-.11 0-.17.06-.17.19v8.49c0 .93.13 1.71.38 2.39.25.67.62 1.23 1.12 1.68.46.44 1.03.78 1.71 1s1.43.36 2.26.36c.77 0 1.5-.12 2.18-.33.69-.2 1.28-.53 1.77-.97.49-.45.88-1.02 1.17-1.7.29-.71.44-1.55.44-2.54V8.62c.11.24.25.53.41.85.29.58.61 1.21.98 1.91s.75 1.42 1.16 2.18c.42.76.81 1.5 1.19 2.2.39.7.73 1.35 1.06 1.94.32.59.57 1.06.75 1.42.05.1.15.15.27.15h2.69c.14 0 .21-.07.21-.19V9.05c0-.13-.07-.2-.19-.2Z"/></svg>

<svg  viewBox="0 0 24 24" fill="currentColor"><path  d="M22 6A1.46 1.46 0 0 1 20.54 7.44A1.46 1.46 0 0 1 19.09 6A1.46 1.46 0 0 1 20.54 4.5A1.46 1.46 0 0 1 22 6M21.56 8.86H19.53C19.4 8.85 19.34 8.91 19.34 9V12.59C19.34 13.08 19.34 13.5 19.35 13.86L19.37 14.76C19.38 15 19.39 15.21 19.39 15.39C19.4 15.56 19.4 15.72 19.4 15.86H19.38C19.26 15.6 19.07 15.22 18.82 14.74C18.58 14.27 18.29 13.72 17.97 13.11C17.64 12.5 17.29 11.84 16.92 11.15C16.55 10.47 16.18 9.78 15.81 9.11C15.45 8.43 15.09 7.78 14.75 7.16C14.4 6.54 14.1 6 13.85 5.54C13.82 5.5 13.79 5.44 13.77 5.42C13.74 5.4 13.68 5.39 13.6 5.39H10.62C10.5 5.39 10.47 5.44 10.47 5.54H10.5C10.47 5.56 10.47 5.57 10.47 5.58V13.84C10.47 14.5 10.4 15 10.25 15.45C10.1 15.88 9.9 16.23 9.64 16.5C9.38 16.75 9.07 16.93 8.72 17.05C8.36 17.16 8 17.22 7.56 17.22C6.54 17.22 5.79 16.91 5.3 16.31C4.8 15.7 4.56 14.89 4.56 13.88V5.56C4.56 5.45 4.5 5.39 4.39 5.39H2.17C2.06 5.39 2 5.45 2 5.58V14.07C2 15 2.13 15.78 2.38 16.46C2.63 17.13 3 17.69 3.5 18.14C3.96 18.58 4.53 18.92 5.21 19.14C5.89 19.36 6.64 19.5 7.47 19.5C8.24 19.5 8.97 19.38 9.65 19.17C10.34 18.97 10.93 18.64 11.42 18.2C11.91 17.75 12.3 17.18 12.59 16.5C12.88 15.79 13.03 14.95 13.03 13.96V8.62C13.14 8.86 13.28 9.15 13.44 9.47C13.73 10.05 14.05 10.68 14.42 11.38C14.79 12.08 15.17 12.8 15.58 13.56C16 14.32 16.39 15.06 16.77 15.76C17.16 16.46 17.5 17.11 17.83 17.7C18.15 18.29 18.4 18.76 18.58 19.12C18.63 19.22 18.73 19.27 18.85 19.27H21.54C21.68 19.27 21.75 19.2 21.75 19.08V9.05C21.75 8.92 21.68 8.85 21.56 8.85Z"/></svg>
